!!! OTL: Literature112
!!! Chapter: 5
!!! Section: III
!!! Page: 371
!!! Mode: 
!!! Encoder: DJB
**kern
*staff1
*I"Piano
=1-
*clefG2
*k[b-e-a-d-]
*f:
*M3/8
4.f/
=2
16a-/LL
16en/
16f/
16c/
16d-/
16Bn/JJ
=3
8Bn/
4c/
=4
16a-/LL
16en/
16f/
16c/
16d-/
16Bn/JJ
=5
8Bn/
4c/
=6
16cc/LL
16g/
16a-/
16en/
16f/
16c/JJ
=7
16dd-\LL
16b-\
16cc\
16a-\
16b-\
16g\JJ
=8
16a-/LL
16f/
16cc/
16f/
16g/
16en/JJ
=9
4.f/
==
*-
